static/assets/img/icons/theme/code/commit.svg

<svg height="24" viewBox="0 0 24 24" width="24" xmlns="http://www.w3.org/2000/svg"><g fill="none" fill-rule="evenodd"><path d="m0 0h24v24h-24z" opacity="0"/><g fill="#000"><path d="m20.5 11h2c.8284271 0 1.5.6715729 1.5 1.5s-.6715729 1.5-1.5 1.5h-2c-.8284271 0-1.5-.6715729-1.5-1.5s.6715729-1.5 1.5-1.5zm-19 0h2c.82842712 0 1.5.6715729 1.5 1.5s-.67157288 1.5-1.5 1.5h-2c-.82842712 0-1.5-.6715729-1.5-1.5s.67157288-1.5 1.5-1.5z" opacity=".3"/><path d="m12 16c1.6568542 0 3-1.3431458 3-3s-1.3431458-3-3-3-3 1.3431458-3 3 1.3431458 3 3 3zm0 2c-2.76142375 0-5-2.2385763-5-5s2.23857625-5 5-5c2.7614237 0 5 2.2385763 5 5s-2.2385763 5-5 5z" fill-rule="nonzero"/></g></g></svg>

<svg width="24px" height="24px" viewBox="0 0 24 24" version="1.1" xmlns="http://www.w3.org/2000/svg" xmlns:xlink="http://www.w3.org/1999/xlink">
    <title>Icon For Commit</title>
    <g stroke="none" stroke-width="1" fill="none" fill-rule="evenodd">
        <rect opacity="0" x="0" y="0" width="24" height="24"></rect>
        <path d="M20.5,11 L22.5,11 C23.3284271,11 24,11.6715729 24,12.5 C24,13.3284271 23.3284271,14 22.5,14 L20.5,14 C19.6715729,14 19,13.3284271 19,12.5 C19,11.6715729 19.6715729,11 20.5,11 Z M1.5,11 L3.5,11 C4.32842712,11 5,11.6715729 5,12.5 C5,13.3284271 4.32842712,14 3.5,14 L1.5,14 C0.671572875,14 1.01453063e-16,13.3284271 0,12.5 C-1.01453063e-16,11.6715729 0.671572875,11 1.5,11 Z" fill="#000000" opacity="0.3"></path>
        <path d="M12,16 C13.6568542,16 15,14.6568542 15,13 C15,11.3431458 13.6568542,10 12,10 C10.3431458,10 9,11.3431458 9,13 C9,14.6568542 10.3431458,16 12,16 Z M12,18 C9.23857625,18 7,15.7614237 7,13 C7,10.2385763 9.23857625,8 12,8 C14.7614237,8 17,10.2385763 17,13 C17,15.7614237 14.7614237,18 12,18 Z" fill="#000000" fill-rule="nonzero"></path>
    </g>
</svg>
